Papirus/64x64/apps/blender.svg

<?xml version="1.0" encoding="UTF-8" standalone="no"?>
<svg xmlns="http://www.w3.org/2000/svg" height="64" width="64" version="1.1">
 <path d="m 31.232422,6.9511719 c -1.280875,-0.073839 -2.5709,0.4705063 -3.410156,1.5722656 -1.342811,1.7628145 -1.005003,4.2626585 0.757812,5.6054685 L 32.349609,17 12,17 c -2.216,0 -4,1.784 -4,4 0,2.216 1.784,4 4,4 l 9.097656,0 -15.5175779,11.814453 c -1.7631453,1.342377 -2.102142,3.842324 -0.7597656,5.605469 1.3423764,1.763145 3.8423239,2.102142 5.6054685,0.759766 L 18.03125,37.390625 A 21,21 0 0 0 18,38 21,21 0 0 0 37.462891,58.921875 c 0.442373,0.03649 0.888101,0.05996 1.33789,0.06836 A 21,21 0 0 0 39,59 a 21,21 0 0 0 0.08008,-0.002 c 0.03795,2.07e-4 0.07528,0.0019 0.113281,0.002 C 50.685984,59 60.002211,49.688015 60,38.203125 c -1.4e-5,-0.04576 -0.0036,-0.091 -0.0039,-0.136719 A 21,21 0 0 0 60,38 21,21 0 0 0 59.984375,37.533203 c -0.005,-0.151861 -0.0093,-0.303751 -0.01758,-0.455078 A 21,21 0 0 0 49.017578,19.546875 C 43.944058,15.551183 38.578429,11.688891 33.427734,7.765625 32.766679,7.2620711 32.000947,6.9954754 31.232422,6.9511719 Z" style="opacity:0.2;fill:#000000;fill-opacity:1"/>
 <path style="fill:#f4b43f" d="M 31.232422 5.9511719 C 29.951547 5.8773329 28.661522 6.4216782 27.822266 7.5234375 C 26.479455 9.2862523 26.817263 11.786096 28.580078 13.128906 L 32.349609 16 L 12 16 C 9.784 16 8 17.784 8 20 C 8 22.216 9.784 24 12 24 L 21.097656 24 L 5.5800781 35.814453 C 3.8169328 37.15683 3.4779361 39.656777 4.8203125 41.419922 C 6.1626889 43.183067 8.6626364 43.522064 10.425781 42.179688 L 18.03125 36.390625 A 21 21 0 0 0 18 37 A 21 21 0 0 0 37.462891 57.921875 C 37.905264 57.958366 38.350992 57.981837 38.800781 57.990234 A 21 21 0 0 0 39 58 A 21 21 0 0 0 39.080078 57.998047 C 39.118031 57.998254 39.155358 57.999996 39.193359 58 C 50.685984 58 60.002211 48.688015 60 37.203125 C 59.999986 37.157368 59.996409 37.112123 59.996094 37.066406 A 21 21 0 0 0 60 37 A 21 21 0 0 0 59.984375 36.533203 C 59.979424 36.381342 59.975055 36.229452 59.966797 36.078125 A 21 21 0 0 0 49.017578 18.546875 C 43.944058 14.551183 38.578429 10.688891 33.427734 6.765625 C 32.766679 6.2620711 32.000947 5.9954754 31.232422 5.9511719 z"/>
 <path style="opacity:0.2" d="M 39.003697,25.992607 A 12.003697,12.003697 0 0 1 51.007394,37.996303 12.003697,12.003697 0 0 1 39.003697,50 12.003697,12.003697 0 0 1 27,37.996303 12.003697,12.003697 0 0 1 39.003697,25.992607 Z"/>
 <path style="fill:#ffffff" d="m 39.010259,25 a 12,12 0 0 1 12.000001,12 12,12 0 0 1 -12.000001,12 12,12 0 0 1 -12,-12 12,12 0 0 1 12,-12 z"/>
 <circle style="fill:#408ef4" cy="36.994" cx="39.004" r="6.002"/>
 <path style="fill:#ffffff;fill-opacity:1;opacity:0.2" d="M 31.232422 5.9511719 C 29.951547 5.8773329 28.661522 6.4216782 27.822266 7.5234375 C 27.146915 8.4100241 26.89867 9.4834645 27.041016 10.501953 C 27.119269 9.8071587 27.366041 9.1223601 27.822266 8.5234375 C 28.661522 7.4216782 29.951547 6.8773329 31.232422 6.9511719 C 32.000947 6.9954754 32.766679 7.2620711 33.427734 7.765625 C 38.578429 11.688891 43.944058 15.551183 49.017578 19.546875 A 21 21 0 0 1 59.966797 37.078125 C 59.975077 37.229452 59.979375 37.381342 59.984375 37.533203 A 21 21 0 0 1 59.988281 37.654297 C 59.99147 37.503776 60.000029 37.354416 60 37.203125 C 59.999986 37.157368 59.996409 37.112123 59.996094 37.066406 A 21 21 0 0 0 60 37 A 21 21 0 0 0 59.984375 36.533203 C 59.979424 36.381342 59.975055 36.229452 59.966797 36.078125 A 21 21 0 0 0 49.017578 18.546875 C 43.944058 14.551183 38.578429 10.688891 33.427734 6.765625 C 32.766679 6.2620711 32.000947 5.9954754 31.232422 5.9511719 z M 12 16 C 9.784 16 8 17.784 8 20 C 8 20.171262 8.0281411 20.334523 8.0488281 20.5 C 8.295816 18.524326 9.9552619 17 12 17 L 32.349609 17 L 31.037109 16 L 12 16 z M 19.785156 25 L 5.5800781 35.814453 C 4.416123 36.700635 3.8876995 38.089329 4.0390625 39.439453 C 4.1805226 38.433543 4.7042291 37.481284 5.5800781 36.814453 L 21.097656 25 L 19.785156 25 z M 18.03125 37.390625 L 18.019531 37.398438 A 21 21 0 0 0 18.025391 37.5 A 21 21 0 0 1 18.03125 37.390625 z"/>
</svg>

<?xml version="1.0" encoding="UTF-8" standalone="no"?>
<svg xmlns="http://www.w3.org/2000/svg" height="64" width="64" version="1.1">
 <path style="opacity:.2" d="m31.232 6.9512c-1.2809-.073839-2.5709.47051-3.4102 1.5723-1.3428 1.7628-1.005 4.2627.75781 5.6055l3.77 2.871h-20.35c-2.216 0-4 1.784-4 4s1.784 4 4 4h9.0977l-15.518 11.814c-1.7631 1.3424-2.1021 3.8423-.75977 5.6055 1.3424 1.7631 3.8423 2.1021 5.6055.75977l7.605-5.788a21 21 0 0 0 -.031 .609 21 21 0 0 0 19.463 20.922c.44237.03649.88810.05996 1.3379.06836a21 21 0 0 0 .199 .010 21 21 0 0 0 .080 -.002c.03795.000207.07528.0019.11328.002 11.493 0 20.809-9.312 20.807-20.797-.000014-.04576-.0036-.091-.0039-.13672a21 21 0 0 0 .004 -.066 21 21 0 0 0 -.016 -.467c-.005-.15186-.0093-.30375-.01758-.45508a21 21 0 0 0 -10.948 -17.531c-5.074-3.996-10.44-7.858-15.59-11.781-.661-.5039-1.427-.7705-2.196-.8148z"/>
 <path style="fill:#f4b43f" d="m31.232 5.9512c-1.28-.0739-2.57.4705-3.41 1.5722-1.343 1.7629-1.005 4.2626.758 5.6056l3.77 2.871h-20.35c-2.216 0-4 1.784-4 4s1.784 4 4 4h9.098l-15.518 11.814c-1.7631 1.343-2.1021 3.843-.7597 5.606s3.8423 2.102 5.6057.760l7.605-5.789a21 21 0 0 0 -.031 .609 21 21 0 0 0 19.463 20.922c.442.036.888.060 1.338.068a21 21 0 0 0 .199 .010 21 21 0 0 0 .080 -.002c.038 0 .075.002.113.002 11.493 0 20.809-9.312 20.807-20.797 0-.046-.004-.091-.004-.137a21 21 0 0 0 .004 -.066 21 21 0 0 0 -.016 -.467c-.005-.152-.009-.304-.017-.455a21 21 0 0 0 -10.949 -17.531c-5.074-3.996-10.44-7.858-15.59-11.781-.661-.5039-1.427-.7705-2.196-.8148z"/>
 <path style="opacity:.2" d="m39.004 25.993a12.004 12.004 0 0 1 12.003 12.003 12.004 12.004 0 0 1 -12.003 12.004 12.004 12.004 0 0 1 -12.004 -12.004 12.004 12.004 0 0 1 12.004 -12.003z"/>
 <path style="fill:#ffffff" d="m39.01 25a12 12 0 0 1 12 12 12 12 0 0 1 -12 12 12 12 0 0 1 -12 -12 12 12 0 0 1 12 -12z"/>
 <circle style="fill:#408ef4" cx="39.004" r="6.002" cy="36.994"/>
 <path style="opacity:.2;fill:#ffffff" d="m19.785 25-14.205 10.814c-1.164.88618-1.6924 2.2749-1.541 3.625.14146-1.0059.66517-1.9582 1.541-2.625l15.518-11.814zm-7.785-9c-2.216 0-4 1.784-4 4 0 .17126.028141.33452.048828.5.2470-1.976 1.9065-3.5 3.9512-3.5h20.35l-1.3125-1zm19.232-10.049c-1.2809-.073839-2.5709.47051-3.4102 1.5723-.67535.88659-.92360 1.96-.78125 2.9785.07825-.69479.32502-1.3796.78125-1.9785.83926-1.1018 2.1293-1.6461 3.4102-1.5723.76852.044303 1.5343.31090 2.1953.81445 5.1507 3.9233 10.516 7.7856 15.59 11.781a21 21 0 0 1 10.949 17.531c.0083.15133.01258.30322.01758.45508a21 21 0 0 1 .0039 .12109c.0032-.15052.01175-.29988.01172-.45117-.000014-.04576-.0036-.091-.0039-.13672a21 21 0 0 0 .004 -.065 21 21 0 0 0 -.016 -.467c-.005-.15186-.0093-.30375-.01758-.45508a21 21 0 0 0 -10.948 -17.531c-5.074-3.996-10.44-7.858-15.59-11.781-.661-.5039-1.427-.7705-2.196-.8148z"/>
</svg>
